svg/volume-down.svg

<svg xmlns="http://www.w3.org/2000/svg" viewBox="0 0 45 62" enable-background="new 0 0 45 62"><style type="text/css">.st0{fill:#333333;}</style><title>volume-down</title><desc>Created with Sketch.</desc><path class="st0" d="M26.9 1.2l-16.7 17.8h-8.2c-1.1 0-2 .9-2 2v20c0 1.1.9 2 2 2h8.4l16.5 17.6c1.1 1.2 2.1.8 2.1-.8v-57.8c0-1.7-.9-2-2.1-.8zm-3.9 46.4l-10-10.6h-7v-12h6.8l10.2-10.9v33.5zM34 20v6c2.8 0 5 2.2 5 5s-2.2 5-5 5v6c6.1 0 11-4.9 11-11s-4.9-11-11-11z"/></svg>

<svg xmlns="http://www.w3.org/2000/svg" viewBox="0 0 45 62"><path d="M26.9 1.2L10.2 19H2c-1.1 0-2 .9-2 2v20c0 1.1.9 2 2 2h8.4l16.5 17.6c1.1 1.2 2.1.8 2.1-.8V2c0-1.7-.9-2-2.1-.8zM23 47.6L13 37H6V25h6.8L23 14.1v33.5zM34 20v6c2.8 0 5 2.2 5 5s-2.2 5-5 5v6c6.1 0 11-4.9 11-11s-4.9-11-11-11z" fill="#333"/></svg>
